fs/clipboard_link_16_regular.svg

<svg viewBox="0 0 16 16" fill="none" xmlns="http://www.w3.org/2000/svg" height="1em" width="1em">
  <path d="M4.08535 2C4.29127 1.4174 4.84689 1 5.5 1H8.5C9.15311 1 9.70873 1.4174 9.91465 2H10.5C11.3284 2 12 2.67157 12 3.5V7H11V3.5C11 3.22386 10.7761 3 10.5 3H9.91465C9.70873 3.5826 9.15311 4 8.5 4H5.5C4.84689 4 4.29127 3.5826 4.08535 3H3.5C3.22386 3 3 3.22386 3 3.5V13.5C3 13.7761 3.22386 14 3.5 14H4.75777C5.01056 14.3776 5.31899 14.7149 5.67133 15H3.5C2.67157 15 2 14.3284 2 13.5V3.5C2 2.67157 2.67157 2 3.5 2H4.08535ZM5.5 2C5.22386 2 5 2.22386 5 2.5C5 2.77614 5.22386 3 5.5 3H8.5C8.77614 3 9 2.77614 9 2.5C9 2.22386 8.77614 2 8.5 2H5.5ZM15 11.5C15 9.567 13.433 8 11.5 8L11.4101 8.00806C11.1769 8.05039 11 8.25454 11 8.5C11 8.77614 11.2239 9 11.5 9L11.6644 9.00532C12.9685 9.08996 14 10.1745 14 11.5C14 12.8807 12.8807 14 11.5 14L11.4977 14.0046L11.4079 14.0131C11.1748 14.0565 10.9989 14.2614 11 14.5069C11.0013 14.783 11.2262 15.0059 11.5023 15.0046V15L11.6941 14.9948C13.5357 14.8951 15 13.3686 15 11.5ZM9 8.5C9 8.22386 8.77614 8 8.5 8L8.30796 8.00518C6.46428 8.10487 5 9.63144 5 11.5C5 13.433 6.567 15 8.5 15L8.58988 14.9919C8.82312 14.9496 9 14.7455 9 14.5C9 14.2239 8.77614 14 8.5 14L8.33562 13.9947C7.03154 13.91 6 12.8255 6 11.5C6 10.1193 7.11929 9 8.5 9L8.58988 8.99194C8.82312 8.94961 9 8.74546 9 8.5ZM11.5002 11.0023L8.50023 11L8.41035 11.008C8.17708 11.0502 8.00011 11.2543 8 11.4998C7.99987 11.7759 8.22363 11.9999 8.49977 12L11.4998 12.0023L11.5897 11.9943C11.8229 11.9521 11.9999 11.748 12 11.5025C12.0001 11.2264 11.7764 11.0024 11.5002 11.0023Z" fill="#212121"/>
</svg>

<svg viewBox="0 0 16 16" fill="none" xmlns="http://www.w3.org/2000/svg" height="1em" width="1em">
  <path d="M4.085 2A1.5 1.5 0 0 1 5.5 1h3a1.5 1.5 0 0 1 1.415 1h.585A1.5 1.5 0 0 1 12 3.5V7h-1V3.5a.5.5 0 0 0-.5-.5h-.585A1.5 1.5 0 0 1 8.5 4h-3a1.5 1.5 0 0 1-1.415-1H3.5a.5.5 0 0 0-.5.5v10a.5.5 0 0 0 .5.5h1.258c.253.378.561.715.913 1H3.5A1.5 1.5 0 0 1 2 13.5v-10A1.5 1.5 0 0 1 3.5 2h.585ZM5.5 2a.5.5 0 0 0 0 1h3a.5.5 0 0 0 0-1h-3Zm9.5 9.5A3.5 3.5 0 0 0 11.5 8l-.09.008A.5.5 0 0 0 11.5 9l.164.005A2.5 2.5 0 0 1 11.5 14l-.002.005-.09.008a.5.5 0 0 0 .094.992V15l.192-.005A3.5 3.5 0 0 0 15 11.5Zm-6-3a.5.5 0 0 0-.5-.5l-.192.005A3.5 3.5 0 0 0 8.5 15l.09-.008A.5.5 0 0 0 8.5 14l-.164-.005A2.5 2.5 0 0 1 8.5 9l.09-.008A.5.5 0 0 0 9 8.5Zm2.5 2.502L8.5 11l-.09.008A.5.5 0 0 0 8.5 12l3 .002.09-.008a.5.5 0 0 0-.09-.992Z" fill="#212121"/>
</svg>
